X:1700
T:Bogallan
S:G.S. McLennan, Highland Bagpipe Music book 1, 1929
B:NLS MH.s.234
R:Reel
M:C|
L:1/8
Q:1/2=88
K:Hp
 {gcd}c3       e/f/ {gef}ecea        |{Gdc}d3 {g}f/a/  {dc}da{fg}fd  |
 {gcd}c3       e/f/ {gef}ecea        |     ceaf       {gef}ec{gBd}B2:|
   {d}c{e}A{d}ce      {g}A{d}c{g}eA  |  {d}ce{g}fe      {g}fa{fg}fe  |
[1 {g}c{d}A{d}ce      {g}A{d}c{gef}eA|  {d}ceaf       {gef}ec{gBd}B2:|
[2 {g}ce{g}B{d}c      {e}A{d}c{g}fe  |  {g}faef       {gef}ec{gBd}B2|]


